X: 32
T: Miss Joss's Strathspey.abc
R: strathspey
Q: "Slow"
B: William Shepherd "1st Collection" 1793 p.3 #2
F: http://imslp.org/wiki/File:PMLP73094-Shepherd_Collections_HMT.pdf
C: William Shepherd (17??-1812)
Z: 2012 John Chambers <jc:trillian.mit.edu>
M: C
L: 1/16
K: Bb
B2 | B,3B,D3B, C3DE3G | B,3B,D3B, F3GB3d |\
[1 c3AB3D C3DE3G | F3B cdec d2B2B2 :|
[2 e3cd3B c3CC3E | F2B2 ABce d2B2B2g2 ||\
f3TBd3TB F3B (ed)cB | TF2Bc {Bc}d3B A3Bc3g |\
f3TBd3TB f3B (ed)cB |
G3E C2FE D3B,B,3g |\
f3TBd3TB f3B (ed)cB | F3B edcB A3Bc3A |\
B3FG3B F2B2F2D2 | E2Gc3{d}e d2B2B2 |]
